images/our-team-bg.svg

<svg width="1832" height="783" viewBox="0 0 1832 783" fill="none" xmlns="http://www.w3.org/2000/svg">
<path d="M50 96.939C29.2208 99.2766 27.4026 101.225 25.0649 122.004C22.7273 101.225 20.7792 99.2766 0 96.939C20.7792 94.6013 22.7273 92.7831 25.0649 72.0039C27.4026 92.7831 29.2208 94.6013 50 96.939Z" fill="#EFF8FF"/>
<path d="M37.5391 95.4623C39.8111 96.0605 42.5329 96.5152 45.8056 96.9399C42.5323 97.3678 39.81 97.8292 37.5373 98.4364C34.3618 99.2849 32.0195 100.429 30.2616 102.204C28.5041 103.979 27.3772 106.337 26.5415 109.523C25.9434 111.804 25.4888 114.532 25.064 117.808C24.6361 114.531 24.1747 111.803 23.5676 109.521C22.7193 106.334 21.5756 103.976 19.8016 102.202C18.0276 100.428 15.6698 99.2846 12.4825 98.4363C10.2013 97.8292 7.47253 97.3678 4.19626 96.9399C7.47193 96.5152 10.2002 96.0605 12.4807 95.4624C15.6671 94.6267 18.0253 93.4998 19.7999 91.7423C21.5749 89.9844 22.719 87.6421 23.5675 84.4666C24.1747 82.1939 24.6361 79.4716 25.064 76.1983C25.4888 79.471 25.9434 82.1928 26.5416 84.4648C27.3775 87.6395 28.5048 89.982 30.2633 91.7406C32.0219 93.4992 34.3645 94.6264 37.5391 95.4623Z" stroke="#1E84B5" stroke-opacity="0.2"/>
<path d="M1703 715.449C1686.79 717.273 1685.37 718.792 1683.55 735C1681.73 718.792 1680.21 717.273 1664 715.449C1680.21 713.626 1681.73 712.208 1683.55 696C1685.37 712.208 1686.79 713.626 1703 715.449Z" fill="#1E84B5"/>
<path d="M1806.64 50.0234C1803.15 50.0234 1800.31 47.1825 1800.31 43.6923V6.35464C1800.31 2.86438 1803.15 0.0234375 1806.64 0.0234375C1810.05 0.0234375 1812.89 2.86438 1812.89 6.35464V43.6923C1812.89 47.1825 1810.05 50.0234 1806.64 50.0234Z" fill="#1E84B5" fill-opacity="0.1"/>
<path d="M1781.64 25.0226C1781.64 21.5324 1784.48 18.6914 1787.89 18.6914H1825.31C1828.8 18.6914 1831.56 21.5324 1831.56 25.0226C1831.56 28.5129 1828.8 31.3538 1825.31 31.3538H1787.89C1784.48 31.3538 1781.64 28.5129 1781.64 25.0226Z" fill="#1E84B5" fill-opacity="0.1"/>
<path d="M523.003 783C519.513 783 516.672 780.159 516.672 776.669V739.331C516.672 735.841 519.513 733 523.003 733C526.412 733 529.253 735.841 529.253 739.331V776.669C529.253 780.159 526.412 783 523.003 783Z" fill="#1E84B5" fill-opacity="0.1"/>
<path d="M498 757.999C498 754.509 500.841 751.668 504.25 751.668H541.669C545.159 751.668 547.919 754.509 547.919 757.999C547.919 761.489 545.159 764.33 541.669 764.33H504.25C500.841 764.33 498 761.489 498 757.999Z" fill="#1E84B5" fill-opacity="0.1"/>
</svg>

<svg xmlns="http://www.w3.org/2000/svg" width="1832" height="783" fill="none" viewBox="0 0 1832 783"><path fill="#eff8ff" d="M50 96.939c-20.78 2.338-22.597 4.286-24.935 25.065C22.727 101.225 20.779 99.277 0 96.939c20.78-2.338 22.727-4.156 25.065-24.935C27.403 92.784 29.22 94.6 50 96.939"/><path stroke="#1e84b5" stroke-opacity=".2" d="M37.54 95.462c2.271.599 4.993 1.053 8.266 1.478-3.274.428-5.996.89-8.269 1.496-3.175.849-5.517 1.993-7.275 3.768s-2.885 4.133-3.72 7.319c-.599 2.281-1.053 5.009-1.478 8.285-.428-3.277-.89-6.005-1.496-8.287-.849-3.187-1.992-5.545-3.766-7.319s-4.132-2.917-7.32-3.766c-2.28-.607-5.01-1.068-8.286-1.496 3.276-.425 6.004-.88 8.285-1.478 3.186-.835 5.544-1.962 7.319-3.72s2.919-4.1 3.767-7.275c.608-2.273 1.07-4.995 1.497-8.269.425 3.273.88 5.995 1.478 8.267.835 3.174 1.963 5.517 3.721 7.276s4.101 2.885 7.276 3.721Z"/><path fill="#1e84b5" d="M1703 715.449c-16.21 1.824-17.63 3.343-19.45 19.551-1.82-16.208-3.34-17.727-19.55-19.551 16.21-1.823 17.73-3.241 19.55-19.449 1.82 16.208 3.24 17.626 19.45 19.449"/><path fill="#1e84b5" fill-opacity=".1" d="M1806.64 50.023c-3.49 0-6.33-2.84-6.33-6.33V6.354a6.34 6.34 0 0 1 6.33-6.332c3.41 0 6.25 2.841 6.25 6.332v37.337c0 3.49-2.84 6.331-6.25 6.331"/><path fill="#1e84b5" fill-opacity=".1" d="M1781.64 25.023c0-3.49 2.84-6.332 6.25-6.332h37.42c3.49 0 6.25 2.841 6.25 6.332s-2.76 6.33-6.25 6.33h-37.42c-3.41 0-6.25-2.84-6.25-6.33M523.003 783a6.34 6.34 0 0 1-6.331-6.331v-37.338a6.34 6.34 0 0 1 6.331-6.331c3.409 0 6.25 2.841 6.25 6.331v37.338c0 3.49-2.841 6.331-6.25 6.331"/><path fill="#1e84b5" fill-opacity=".1" d="M498 757.999c0-3.49 2.841-6.331 6.25-6.331h37.419c3.49 0 6.25 2.841 6.25 6.331s-2.76 6.331-6.25 6.331H504.25c-3.409 0-6.25-2.841-6.25-6.331"/></svg>
